X:175
T:Maid in the Rushes (reel), The 
T:London Lasses
B:CRE2.170 (Gearrchaile sa Luachair)
F:file ID: cre.2/175maid_r
M:C
R:reel
Q:180
K:G
(3DEF|:G2 (3BAG dGBd|eaag egg2|G2 (3BAG dGBd|(3ege dB AGED|
G2 (3BAG dgBd|eaag efga|bgag efge|(3gfe dB AGEF:|
|:g2fg edBc|dGG2 BGBd|g2ag edBc|dGG2 BAA2|
g2ag edBc|dGG2 Bdga|bgag efge|g2dB AGEF:|

%%%

